X: 063
M: 9/8
L: 1/8
K: C
(E/F/GE) cdc B2G | (A/B/cA) GEC D2F | (E/F/GE) cdc B2G | (A/B/cA) GEC C2 :|
|: e |\
c2c (e/f/ge) gec | (e/f/ge) afd d2e | c2c (e/f/ge) gec | (e/f/ge) gec c2e |
c2c (e/f/ge) gec |  e/f/ge  afd d2e | cGc  edc     BAG |  A/B/cA  GEC C2 :|

